packages/core/assets/Icons/arrow_double_up.svg

<svg viewBox="0 0 20 20" fill="none" xmlns="http://www.w3.org/2000/svg">
<path d="M9.99996 11.5209L6.74996 14.75C6.59718 14.9028 6.40621 14.9827 6.17704 14.9896C5.94788 14.9966 5.74996 14.9167 5.58329 14.75C5.43051 14.5973 5.35413 14.4028 5.35413 14.1667C5.35413 13.9306 5.43051 13.7362 5.58329 13.5834L9.41663 9.75004C9.49996 9.66671 9.59024 9.60768 9.68746 9.57296C9.78468 9.53823 9.88885 9.52087 9.99996 9.52087C10.1111 9.52087 10.2152 9.53823 10.3125 9.57296C10.4097 9.60768 10.5 9.66671 10.5833 9.75004L14.4166 13.5834C14.5694 13.7362 14.6493 13.9271 14.6562 14.1563C14.6632 14.3855 14.5833 14.5834 14.4166 14.75C14.2638 14.9028 14.0694 14.9792 13.8333 14.9792C13.5972 14.9792 13.4027 14.9028 13.25 14.75L9.99996 11.5209ZM9.99996 6.52087L6.74996 9.75004C6.59718 9.90282 6.40621 9.98268 6.17704 9.98962C5.94788 9.99657 5.74996 9.91671 5.58329 9.75004C5.43051 9.59726 5.35413 9.40282 5.35413 9.16671C5.35413 8.9306 5.43051 8.73615 5.58329 8.58337L9.41663 4.75004C9.49996 4.66671 9.59024 4.60768 9.68746 4.57296C9.78468 4.53824 9.88885 4.52087 9.99996 4.52087C10.1111 4.52087 10.2152 4.53824 10.3125 4.57296C10.4097 4.60768 10.5 4.66671 10.5833 4.75004L14.4166 8.58337C14.5694 8.73615 14.6493 8.92712 14.6562 9.15629C14.6632 9.38546 14.5833 9.58337 14.4166 9.75004C14.2638 9.90282 14.0694 9.97921 13.8333 9.97921C13.5972 9.97921 13.4027 9.90282 13.25 9.75004L9.99996 6.52087Z" fill="currentColor"/>
</svg>

<svg xmlns="http://www.w3.org/2000/svg" width="20" height="20" fill="none" viewBox="0 0 20 20">
  <path fill="#201F1F" d="m10 11.52-3.25 3.23a.814.814 0 0 1-.573.24.775.775 0 0 1-.594-.24.79.79 0 0 1-.229-.583.79.79 0 0 1 .23-.584L9.416 9.75a.731.731 0 0 1 .27-.177.922.922 0 0 1 .313-.052c.111 0 .215.017.313.052a.73.73 0 0 1 .27.177l3.834 3.833a.814.814 0 0 1 .24.573.775.775 0 0 1-.24.594.79.79 0 0 1-.584.23.79.79 0 0 1-.583-.23L10 11.52Zm0-5L6.75 9.75a.814.814 0 0 1-.573.24.776.776 0 0 1-.594-.24.79.79 0 0 1-.229-.583.79.79 0 0 1 .23-.584L9.416 4.75a.731.731 0 0 1 .27-.177.922.922 0 0 1 .313-.052c.111 0 .215.017.313.052a.73.73 0 0 1 .27.177l3.834 3.833a.814.814 0 0 1 .24.573.775.775 0 0 1-.24.594.79.79 0 0 1-.584.23.79.79 0 0 1-.583-.23L10 6.52Z"/>
</svg>
